!!!!SEGMENT: pl-kk--kk-i-68--003_anonim--missa-alleluia.krn
!!!cenid: 17xx:2275
!!!COM: Anonim
!!!COM-rismid: pe30004985
!!!CDT:
!!!CNT:
!!!OPR: Missa
!!!OTL: Alleluia
!!!OMV: 003
!!!PDT:
!!!AGN: Sacred; Mass
!!!SMS-siglum: PL-Kk
!!!SMS-shelfmark: Kk.I.68
!!!SMS-shelfwork: 001-003 M
!!!SMS-variant: Baſso PL-Kk Kk.I.68:0011
!!!SMS-altvar: Baſso PL-Kk Kk.I.68:0016
!!!NIFC-rismid: 1001154624
!!!URL-scan: http://repozytorium.nifc.pl/skany/pl-kk-nut--i-68
!!!ONB-nifc: UWAGA: części Mszy: 1. Protexisti me, 2. Kyrie, 3. Alleluia, 4. Posuisti Domine, 5. Sanctus, 6. Benedictus, 7. Agnus Dei, 8. Dona nobis, 9. Deo gratias
!!!AIN: 1 empty 2 tenor
!!!key:
**kern	**text	**kern	**text	**kern	**text
*part3	*part3	*part2	*part2	*part1	*part1
*staff3	*staff3	*staff2	*staff2	*staff1	*staff1
*Iempty	*	*Itenor	*	*Itenor	*
*I"Baſso	*	*I"Tenore Secundo	*	*I"Tenore Primo	*
*I'B	*	*I'T 2	*	*I'T 1	*
*clefF4	*	*clefC4	*	*clefC4	*
*k[]	*	*k[]	*	*k[]	*
*C:	*	*C:	*	*C:	*
*M3/2	*	*M3/2	*	*M3/2	*
=1	=1	=1	=1	=1	=1
2C/	Al-	1.e	Al-	1.c	Al-
2E/	.	.	.	.	.
2C/	.	.	.	.	.
=2	=2	=2	=2	=2	=2
*2\right	*	*	*	*	*
2G\	-le-	1.d	-le-	1.B	-le-
2B\	.	.	.	.	.
2G\	.	.	.	.	.
=3	=3	=3	=3	=3	=3
4F\	.	1.f	-lu-	1.A	-lu-
4G\	.	.	.	.	.
4A\	.	.	.	.	.
4G\	.	.	.	.	.
4A\	.	.	.	.	.
4B\	-lu-	.	.	.	.
=4	=4	=4	=4	=4	=4
1c	-ia	1e	-ia	1G	-ia
*	*	*2\right	*	*2\right	*
2C/	al-	2c\	al-	2e\	al-
!LO:PB:g=original	!	!	!	!	!
=5	=5	=5	=5	=5	=5
1.G	.	2d\	.	2f\	.
.	.	2c\	.	2e\	.
.	.	2B\	.	2d\	.
=6	=6	=6	=6	=6	=6
2C/	.	2g\	.	2e\	.
2D/	.	2f\	.	2d\	.
2E/	.	2e\	le-	2c\	le-
!	!	!	!	!LO:LB:g=original	!
=7	=7	=7	=7	=7	=7
2F\	-le-	2f\	-lu-	2d\	-lu-
1G	-lu-	2e\	.	2c\	.
.	.	2d\	.	2B\	.
=8	=8	=8	=8	=8	=8
1C	-ia	1e	-ia	1c	-ia
2r	.	2r	.	4c\	Sur-
.	.	.	.	4e\	.
!	!	!LO:LB:g=original	!	!	!
=9	=9	=9	=9	=9	=9
1.r	.	2r	.	2g\	-re-
.	.	2r	.	2g\	-xit
.	.	4G/	Sur-	2f\	sur-
.	.	4B/	.	.	.
=10	=10	=10	=10	=10	=10
2r	.	2c\	-re-	2e\	-re-
2r	.	2c\	-xit	2e\	-xit
4C/	Sur-	2G/	sur-	2e\	sur-
4E/	.	.	.	.	.
=11	=11	=11	=11	=11	=11
1G	-re-	1B	-re-	1d	-re-
2G\	-xit	2B\	-xit	2d\	-xit
=12	=12	=12	=12	=12	=12
2E\	pa-	2c\	pa-	2e\	pas-
2D\	.	2d\	.	2f\	.
2C/	-stor	2e\	-stor	2g\	-tor
!LO:LB:g=original	!	!	!	!	!
=13	=13	=13	=13	=13	=13
2F\	bo-	2d\	bo-	2f\	bo-
2G\	.	2c\	.	2e\	.
2GG/	.	2B\	.	2d\	.
!	!	!	!	!LO:LB:g=original	!
=14	=14	=14	=14	=14	=14
2C/	-nus	2c\	-nus	2e\	-nus
2r	.	2r	.	2r	.
4C\	qui	2c\	qui	2e\	qui
4E\	.	.	.	.	.
=15	=15	=15	=15	=15	=15
4G\	po-	2.d\	po-	2.f\	po-
4A\	.	.	.	.	.
4B\	-su-	.	.	.	.
4G\	.	4d\	-su-	4f\	-su-
2c\	-it	2c\	-it	2e\	-it
!	!	!LO:LB:g=original	!	!	!
=16	=16	=16	=16	=16	=16
2.G\	a-	2.B\	a-	2.d\	a-
4G\	-ni-	4B\	-ni-	4d\	-ni-
2C/	-mam	2c\	-mam	2e\	-mam
=17	=17	=17	=17	=17	=17
1.G	su-	4B\	su-	4d\	su-
.	.	4A\	.	4c\	.
.	.	4G\	.	4B\	.
.	.	4A\	.	4c\	.
.	.	4B\	.	4d\	.
.	.	4c\	.	4e\	.
=18	=18	=18	=18	=18	=18
2G\	-am	2d\	-am	2f\	-am
2r	.	2r	.	2r	.
2G\	pro	2d\	pro	2f\	pro
=19	=19	=19	=19	=19	=19
2.C/	o-	2.c\	o-	2.e\	o-
4D/	-vi-	4B\	-vi-	4d\	-vi-
2E/	-bus	2G/	-bus	2c\	-bus
!LO:LB:g=original	!	!	!	!LO:LB:g=original	!
=20	=20	=20	=20	=20	=20
2F\	su-	2A\	su-	2d\	su-
2G\	.	2e\	.	2c\	.
2GG/	.	2d\	.	2B\	.
=21	=21	=21	=21	=21	=21
2C/	-is,	2e\	-is,	2c\	-is,
2AA/	et	2e\	et	2c\	et
2C/	pro-	2e\	pro-	2A\	pro-
=22	=22	=22	=22	=22	=22
2E\	-su-	1e	-su-	1B	-su-
2G#X\	.	.	.	.	.
2A\	-o	2e\	-o	2c\	-o
!	!	!LO:LB:g=original	!	!	!
=23	=23	=23	=23	=23	=23
2B\	gre-	1e	gre-	1d	gre-
2G#X\	.	.	.	.	.
2A\	-ge	2e\	-ge	2c\	-ge
=24	=24	=24	=24	=24	=24
1E	mo-	2d\	mo-	2B\	mo-
.	.	2B\	.	2G#X/	.
2A\	-ri	2c\	-ri	2A/	-ri
=25	=25	=25	=25	=25	=25
2D\	dig-	2d\	dig-	2B\	dig-
2E\	-na-	2c\	-na-	2A\	-na-
2E\	-tus	2B\	-tus	2G#X/	-tus
=26	=26	=26	=26	=26	=26
2AA/	est	2A\	est,	2A/	est,
!LO:LB:g=original	!	!	!	!	!
=-	=-	=-	=-	=-	=-
2C/	et	2e\	et	2c\	et
2G\	pro-	2d\	pro-	2B\	pro-
!	!	!	!	!LO:LB:g=original	!
=27	=27	=27	=27	=27	=27
2G\	-su-	1f	-su-	1d	-su-
2B\	.	.	.	.	.
2c\	-o	2e\	-o	2c\	-o
=28	=28	=28	=28	=28	=28
1G	gre-	2d\	gre-	2f\	gre-
.	.	2B\	.	2d\	.
2C/	-ge	2c\	-ge	2e\	-ge
=29	=29	=29	=29	=29	=29
2C/	mo-	2e\	mo-	2g\	mo-
2D/	.	2d\	.	2f\	.
2E/	-ri	2c\	-ri	2e\	-ri
!	!	!LO:PB:g=original	!	!	!
=30	=30	=30	=30	=30	=30
2F\	dig-	2f\	dig-	2d\	dig-
2G\	-na-	2e\	-na-	2c\	-na-
2G\	-tus	2d\	-tus	2B\	-tus
=31	=31	=31	=31	=31	=31
2C/	est	2e\	est	2c\	est
4C/	al-	2g\	al-	2e\	al-
4D/	.	.	.	.	.
4E/	-le-	2e\	-le-	2c\	-le-
4F/	.	.	.	.	.
!LO:LB:g=original	!	!	!	!	!
=32	=32	=32	=32	=32	=32
1G	-lu-	1d	-lu-	1B	-lu-
2G\	-ia	2d\	-ia	2B\	-ia
=33	=33	=33	=33	=33	=33
2r	.	2r	.	2r	.
1G	al-	2d\	al-	2f\	al-
.	.	2B\	.	2d\	.
!	!	!	!	!LO:LB:g=original	!
=34	=34	=34	=34	=34	=34
2C/	.	1G	.	2e\	.
2D/	.	.	.	2d\	.
2E/	.	2G/	-le-	2c\	-le-
=35	=35	=35	=35	=35	=35
2F\	-le-	2A\	-lu-	2d\	-lu-
1G	-lu-	2e\	.	2c\	.
.	.	2d\	.	2B\	.
=36	=36	=36	=36	=36	=36
1.C	-ia	1.e	-ia	1.c	-ia
!LO:LB:g=original	!	!LO:LB:g=original	!	!LO:LB:g=original	!
==	==	==	==	==	==
*-	*-	*-	*-	*-	*-
!!!system-decoration: [(s1,s2,s3)]
!!!ENC: Marta Chmielewska
!!!END: 2021-08-06
!!!ENC: Tomasz Grochalski
!!!END: 2021-07-09
